Papirus/24x24/mimetypes/application-vnd.android.package-archive.svg

<svg xmlns="http://www.w3.org/2000/svg" width="24" height="24" version="1">
 <defs>
  <clipPath id="clipPath-790372096">
   <g transform="translate(0,-1004.4)">
    <path fill="#1890d0" d="m-24 13c0 1.105-0.672 2-1.5 2s-1.5-0.895-1.5-2 0.672-2 1.5-2 1.5 0.895 1.5 2z" transform="matrix(15.333,0,0,11.5,415,878.86)"/>
   </g>
  </clipPath>
 </defs>
 <path style="opacity:0.2" d="m 5,2.5 c -0.554,0 -1,0.446 -1,1 v 18 c 0,0.554 0.446,1 1,1 h 14 c 0.554,0 1,-0.446 1,-1 V 8.5 L 14.5,8 14,2.5 Z"/>
 <path fill="#a3c639" d="m5 2c-0.554 0-1 0.446-1 1v18c0 0.554 0.446 1 1 1h14c0.554 0 1-0.446 1-1v-13l-5.5-0.5-0.5-5.5z"/>
 <path fill="#fff" style="opacity:0.2" d="m5 2c-0.554 0-1 0.446-1 1v0.5c0-0.554 0.446-1 1-1h9l5.5 5.5h0.5l-6-6z"/>
 <path style="opacity:0.2" d="m 14,2.5 v 5 c 0,0.5523 0.44772,1 1,1 h 5 z"/>
 <path fill="#d7f57c" d="m14 2v5c0 0.5523 0.44772 1 1 1h5l-6-6z"/>
 <path style="opacity:0.2" d="m 10.115234,9.5644531 c -0.02455,-0.0054 -0.05044,-0.00162 -0.07226,0.013672 -0.04364,0.02727 -0.050848,0.088946 -0.01758,0.1347656 l 0.552734,0.7734373 C 9.698325,10.879628 9.0791,11.628 9,12.5 h 6 c -0.079,-0.872 -0.695172,-1.622272 -1.576172,-2.013672 l 0.554688,-0.7734374 c 0.03327,-0.04582 0.02442,-0.1058556 -0.01758,-0.1347656 -0.04364,-0.02945 -0.105392,-0.01457 -0.138672,0.03125 l -0.574219,0.802734 c -0.379998,-0.1445 -0.800139,-0.224609 -1.244139,-0.224609 -0.44346,0 -0.866433,0.08006 -1.246094,0.224609 L 10.181641,9.6074219 c -0.01691,-0.02291 -0.04186,-0.036969 -0.06641,-0.042969 z m 0.794922,1.2988279 c 0.15109,0 0.271485,0.121485 0.271485,0.271485 0,0.15 -0.122025,0.273437 -0.271485,0.273437 -0.15109,0 -0.273437,-0.121797 -0.273437,-0.273437 0,-0.15 0.122347,-0.271485 0.273437,-0.271485 z m 2.181641,0 c 0.15109,0 0.271484,0.121485 0.271484,0.271485 0,0.15 -0.122024,0.273437 -0.271484,0.273437 -0.15109,0 -0.273438,-0.121797 -0.273438,-0.273437 0,-0.15 0.122348,-0.271485 0.273438,-0.271485 z M 8.5214844,13.5 C 8.2339844,13.5 8,13.727812 8,14.007812 v 1.984376 C 8,16.272187 8.2339844,16.5 8.5214844,16.5 8.8089844,16.5 9,16.271187 9,15.992188 v 1.029296 C 9,17.248484 9.1104344,17.5 9.4277344,17.5 H 10 v 1.492188 C 10,19.273187 10.233484,19.5 10.521484,19.5 10.809484,19.5 11,19.272188 11,18.992188 V 17.5 h 2 v 1.492188 C 13,19.273187 13.233484,19.5 13.521484,19.5 13.809484,19.5 14,19.272188 14,18.992188 V 17.5 h 0.572266 C 14.861266,17.5 15,17.247484 15,17.021484 V 15.992188 C 15,16.272028 15.233984,16.5 15.521484,16.5 15.808984,16.5 16,16.272027 16,15.992188 V 14.007812 C 16,13.727813 15.809484,13.5 15.521484,13.5 15.233984,13.5 15,13.727983 15,14.007812 V 13.5 H 9 v 0.507812 C 9,13.727813 8.8094844,13.5 8.5214844,13.5 Z"/>
 <path style="fill:#ffffff" d="M 10.115234 9.0644531 C 10.090684 9.0590531 10.064789 9.062835 10.042969 9.078125 C 9.9993288 9.105395 9.9921206 9.1670706 10.025391 9.2128906 L 10.578125 9.9863281 C 9.698325 10.379628 9.0791 11.128 9 12 L 15 12 C 14.921 11.128 14.304828 10.377728 13.423828 9.9863281 L 13.978516 9.2128906 C 14.011786 9.1670706 14.002938 9.107035 13.960938 9.078125 C 13.917298 9.048675 13.855546 9.063555 13.822266 9.109375 L 13.248047 9.9121094 C 12.868047 9.7676094 12.447906 9.6875 12.003906 9.6875 C 11.560446 9.6875 11.137473 9.7675594 10.757812 9.9121094 L 10.181641 9.1074219 C 10.164731 9.0845119 10.139784 9.0704531 10.115234 9.0644531 z M 10.910156 10.363281 C 11.061246 10.363281 11.181641 10.484766 11.181641 10.634766 C 11.181641 10.784766 11.059616 10.908203 10.910156 10.908203 C 10.759066 10.908203 10.636719 10.786406 10.636719 10.634766 C 10.636719 10.484766 10.759066 10.363281 10.910156 10.363281 z M 13.091797 10.363281 C 13.242887 10.363281 13.363281 10.484766 13.363281 10.634766 C 13.363281 10.784766 13.241257 10.908203 13.091797 10.908203 C 12.940707 10.908203 12.818359 10.786406 12.818359 10.634766 C 12.818359 10.484766 12.940707 10.363281 13.091797 10.363281 z M 8.5214844 13 C 8.2339844 13 8 13.227812 8 13.507812 L 8 15.492188 C 8 15.772187 8.2339844 16 8.5214844 16 C 8.8089844 16 9 15.771187 9 15.492188 L 9 16.521484 C 9 16.748484 9.1104344 17 9.4277344 17 L 10 17 L 10 18.492188 C 10 18.773187 10.233484 19 10.521484 19 C 10.809484 19 11 18.772188 11 18.492188 L 11 17 L 13 17 L 13 18.492188 C 13 18.773187 13.233484 19 13.521484 19 C 13.809484 19 14 18.772188 14 18.492188 L 14 17 L 14.572266 17 C 14.861266 17 15 16.747484 15 16.521484 L 15 15.492188 C 15 15.772028 15.233984 16 15.521484 16 C 15.808984 16 16 15.772027 16 15.492188 L 16 13.507812 C 16 13.227813 15.809484 13 15.521484 13 C 15.233984 13 15 13.227983 15 13.507812 L 15 13 L 9 13 L 9 13.507812 C 9 13.227813 8.8094844 13 8.5214844 13 z"/>
 <path fill="#fff" d="m8.605 12.078"/>
 <path fill="#fff" d="m12.251 13.916"/>
 <path fill="#fff" d="m13.448 10.77"/>
 <g fill="#fff" transform="matrix(.5 0 0 .5 -22.778 -12.61)">
  <g fill="#fff" clip-path="url(#clipPath-790372096)">
   <g fill="#fff">
    <path d="m33.434 19c-0.863 0-1.434 0.758-1.434 1.691v6.617c0 0.934 0.57 1.695 1.434 1.695 0.867 0 1.563-0.762 1.563-1.695v-6.617c0-0.934-0.699-1.691-1.563-1.691m-18.871 0c-0.863 0-1.566 0.758-1.566 1.691v6.617c0 0.934 0.703 1.695 1.566 1.695s1.434-0.762 1.434-1.695v-6.617c0-0.934-0.57-1.691-1.434-1.691"/>
    <path d="m17.004 19v11.594c0 0.688 0.32 1.4062 1 1.4062h2v3.375c0 0.898 0.3155 1.625 1.1875 1.625 0.867 0 1.8125-0.727 1.8125-1.625v-3.375h2v3.375c0 0.898 0.9405 1.625 1.8125 1.625 0.867 0 1.1914-0.727 1.1914-1.625v-3.375h2c0.676 0 1-0.71925 1-1.4062v-11.594h-14.004z" transform="translate(-.003)"/>
    <path d="m27.32 13.199 1.293-1.844c0.078-0.109 0.055-0.25-0.043-0.32-0.102-0.07-0.246-0.035-0.324 0.074l-1.34 1.914c-0.887-0.344-1.871-0.535-2.906-0.535s-2.02 0.191-2.906 0.535l-1.344-1.914c-0.078-0.109-0.219-0.145-0.32-0.074-0.102 0.066-0.121 0.211-0.043 0.32l1.293 1.844c-2.055 0.938-3.5 2.723-3.684 4.801h14c-0.184-2.078-1.625-3.867-3.68-4.801m-6.27 2.902c-0.43 0-0.777-0.34-0.777-0.762 0-0.418 0.348-0.758 0.777-0.758 0.43 0 0.773 0.34 0.773 0.758s-0.348 0.762-0.773 0.762m6 0c-0.43 0-0.777-0.34-0.777-0.762 0-0.418 0.348-0.758 0.777-0.758 0.426 0 0.773 0.34 0.773 0.758s-0.348 0.762-0.773 0.762"/>
   </g>
  </g>
 </g>
</svg>

<svg xmlns="http://www.w3.org/2000/svg" width="24" height="24" version="1.1">
 <path style="opacity:0.2" d="M 5,2.5 C 4.446,2.5 4,2.946 4,3.5 V 21.5 C 4,22.054 4.446,22.5 5,22.5 H 19 C 19.554,22.5 20,22.054 20,21.5 V 8.5 L 14,2.5 Z"/>
 <path style="fill:#a3c639" d="M 5,2 C 4.446,2 4,2.446 4,3 V 21 C 4,21.554 4.446,22 5,22 H 19 C 19.554,22 20,21.554 20,21 V 8 L 15,7 14,2 Z"/>
 <path style="opacity:0.2" d="M 20,8.5 14,2.5 V 7.5 C 14,8.054 14.446,8.5 15,8.5 Z"/>
 <path style="fill:#d7f57c" d="M 20,8 14,2 V 7 C 14,7.554 14.446,8 15,8 Z"/>
 <path style="opacity:0.2;fill:#ffffff" d="M 5 2 C 4.446 2 4 2.446 4 3 L 4 3.5 C 4 2.946 4.446 2.5 5 2.5 L 14 2.5 L 14 2 L 5 2 z"/>
 <path style="opacity:0.2" d="M 10.115,9.5643 C 10.091,9.5589 10.065,9.5626 10.043,9.5779 9.9993,9.6052 9.9921,9.6669 10.025,9.7127 L 10.578,10.486 C 9.6983,10.88 9.0791,11.628 9,12.5 H 15 C 14.921,11.628 14.305,10.878 13.424,10.486 L 13.979,9.7127 C 14.012,9.6669 14.003,9.6068 13.961,9.5779 13.917,9.5485 13.856,9.5634 13.822,9.6092 L 13.248,10.412 C 12.868,10.268 12.448,10.188 12.004,10.188 11.56,10.188 11.137,10.268 10.758,10.412 L 10.182,9.6072 C 10.165,9.5843 10.14,9.5703 10.115,9.5643 Z M 10.91,10.863 C 11.061,10.863 11.182,10.985 11.182,11.135 11.182,11.285 11.06,11.408 10.91,11.408 10.759,11.408 10.637,11.286 10.637,11.135 10.637,10.985 10.759,10.863 10.91,10.863 Z M 13.092,10.863 C 13.243,10.863 13.363,10.985 13.363,11.135 13.363,11.285 13.241,11.408 13.092,11.408 12.941,11.408 12.818,11.286 12.818,11.135 12.818,10.985 12.941,10.863 13.092,10.863 Z M 8.5215,13.5 C 8.234,13.5 8,13.728 8,14.008 V 15.992 C 8,16.272 8.234,16.5 8.5215,16.5 8.809,16.5 9,16.271 9,15.992 V 17.021 C 9,17.248 9.1104,17.5 9.4277,17.5 H 10 V 18.992 C 10,19.273 10.233,19.5 10.521,19.5 10.809,19.5 11,19.272 11,18.992 V 17.5 H 13 V 18.992 C 13,19.273 13.233,19.5 13.521,19.5 13.809,19.5 14,19.272 14,18.992 V 17.5 H 14.572 C 14.861,17.5 15,17.247 15,17.021 V 15.992 C 15,16.272 15.234,16.5 15.521,16.5 15.809,16.5 16,16.272 16,15.992 V 14.008 C 16,13.728 15.809,13.5 15.521,13.5 15.234,13.5 15,13.728 15,14.008 V 13.5 H 9 V 14.008 C 9,13.728 8.8095,13.5 8.5215,13.5 Z"/>
 <path style="fill:#ffffff" d="M 10.115,9.0643 C 10.091,9.0589 10.065,9.0626 10.043,9.0779 9.9993,9.1052 9.9921,9.1669 10.025,9.2127 L 10.578,9.9861 C 9.6983,10.38 9.0791,11.128 9,12 H 15 C 14.921,11.128 14.305,10.378 13.424,9.9861 L 13.979,9.2127 C 14.012,9.1669 14.003,9.1068 13.961,9.0779 13.917,9.0485 13.856,9.0634 13.822,9.1092 L 13.248,9.9119 C 12.868,9.7674 12.448,9.6873 12.004,9.6873 11.56,9.6873 11.137,9.7674 10.758,9.9119 L 10.182,9.1072 C 10.165,9.0843 10.14,9.0703 10.115,9.0643 Z M 10.91,10.363 C 11.061,10.363 11.182,10.485 11.182,10.635 11.182,10.785 11.06,10.908 10.91,10.908 10.759,10.908 10.637,10.786 10.637,10.635 10.637,10.485 10.759,10.363 10.91,10.363 Z M 13.092,10.363 C 13.243,10.363 13.363,10.485 13.363,10.635 13.363,10.785 13.241,10.908 13.092,10.908 12.941,10.908 12.818,10.786 12.818,10.635 12.818,10.485 12.941,10.363 13.092,10.363 Z M 8.5215,13 C 8.234,13 8,13.228 8,13.508 V 15.492 C 8,15.772 8.234,16 8.5215,16 8.809,16 9,15.771 9,15.492 V 16.521 C 9,16.748 9.1104,17 9.4277,17 H 10 V 18.492 C 10,18.773 10.233,19 10.521,19 10.809,19 11,18.772 11,18.492 V 17 H 13 V 18.492 C 13,18.773 13.233,19 13.521,19 13.809,19 14,18.772 14,18.492 V 17 H 14.572 C 14.861,17 15,16.747 15,16.521 V 15.492 C 15,15.772 15.234,16 15.521,16 15.809,16 16,15.772 16,15.492 V 13.508 C 16,13.228 15.809,13 15.521,13 15.234,13 15,13.228 15,13.508 V 13 H 9 V 13.508 C 9,13.228 8.8095,13 8.5215,13 Z"/>
</svg>
